www/assets/icons/subdirectory_arrow_left.svg

<svg xmlns="http://www.w3.org/2000/svg" width="24" height="24" viewBox="0 0 24 24" fill='currentColor'><path d="m10.5 8.5 1.42 1.42-3.59 3.58h9.17v-10h2v12H8.33l3.59 3.58-1.42 1.42-6-6z"/></svg>

<svg width="24" height="24" viewBox="0 0 24 24" xmlns="http://www.w3.org/2000/svg" fill='currentColor'><path d="M10.5 8.5L11.92 9.92L8.33 13.5H17.5V3.5H19.5V15.5H8.33L11.92 19.08L10.5 20.5L4.5 14.5L10.5 8.5Z"/></svg>
